X: 3962
T: Blackhaired Lass, The
R: reel
M: 4/4
K: Amixolydian
|:AB|cA~A2 cdec|d2gd BGG2|cA~A2 cdec|dfec A2:|
AB|cdef g2eg|f2df gfed|(3Bcd ef geag|fdec A2AB|
cdef g2eg|fddc defg|afge fdec|dfec A2AB||

